packages/elvis-assets-icons/icons/svg/src/warning_electricity-color.svg

<svg width="24" height="24" viewBox="0 0 24 24" fill="none" xmlns="http://www.w3.org/2000/svg">
<path fill-rule="evenodd" clip-rule="evenodd" d="M22.2352 20.5147L12.4949 2.95388C12.281 2.56831 11.718 2.56831 11.5042 2.9539L1.7648 20.5147C1.55973 20.8845 1.83187 21.3353 2.26015 21.3353H21.7398C22.1681 21.3353 22.4403 20.8844 22.2352 20.5147ZM23.7212 19.7175C24.5416 21.1966 23.453 23 21.7398 23H2.26015C0.547004 23 -0.541563 21.1967 0.278751 19.7176L10.0181 2.15679C10.8735 0.614444 13.1254 0.614394 13.9809 2.1567L23.7212 19.7175Z" fill="#FFA000"/>
<path d="M10.3074 20.2494C10.2295 20.2494 10.1494 20.2371 10.0636 20.2116C10.0433 20.2049 10.023 20.1983 10.0027 20.1905C9.98351 20.1849 9.9553 20.1749 9.92709 20.1605C9.88646 20.1405 9.84584 20.1149 9.80747 20.0871C9.80183 20.0827 9.78941 20.0738 9.78941 20.0738C9.72622 20.0249 9.66979 19.9672 9.61901 19.8972C9.6145 19.8905 9.59644 19.8649 9.59193 19.8583C9.55356 19.7972 9.52309 19.7327 9.50165 19.6649C9.49601 19.6494 9.49036 19.6338 9.48698 19.6183L8.64062 16.2851C8.52777 15.8395 8.80312 15.3862 9.25677 15.274C9.32335 15.2584 9.39219 15.2495 9.46102 15.2495C9.85035 15.2495 10.1878 15.5095 10.2826 15.8806L10.5737 17.0284L12.324 13.5829H9.46102C9.17552 13.5829 8.91145 13.4429 8.75459 13.2085C8.59773 12.9741 8.57065 12.6796 8.6835 12.4219L11.2226 6.58873C11.3569 6.28207 11.6627 6.08319 12.0012 6.08319C12.1163 6.08319 12.2281 6.10541 12.3341 6.15097C12.763 6.33207 12.9627 6.82316 12.7788 7.24537L10.7441 11.9163H13.6928C13.984 11.9163 14.2593 12.0674 14.4128 12.3108C14.5685 12.5596 14.5821 12.8618 14.45 13.1218L11.8873 18.1683L13.4875 17.775C13.5563 17.7583 13.624 17.7506 13.6928 17.7506C14.0822 17.7506 14.4207 18.0094 14.5144 18.3817C14.6272 18.8272 14.3519 19.2805 13.8993 19.3916L10.5139 20.2249C10.4451 20.2405 10.3762 20.2494 10.3074 20.2494Z" fill="black"/>
</svg>

<svg width="24" height="24" fill="none" xmlns="http://www.w3.org/2000/svg"><path d="M10.307 20.25a.846.846 0 01-.304-.06.434.434 0 01-.076-.03.839.839 0 01-.12-.073l-.018-.013a.856.856 0 01-.17-.177l-.027-.039a.838.838 0 01-.09-.193c-.006-.016-.012-.031-.015-.047l-.846-3.333a.834.834 0 01.82-1.035c.39 0 .727.26.822.63l.29 1.148 1.751-3.445H9.461a.847.847 0 01-.706-.374.819.819 0 01-.071-.787l2.539-5.833a.849.849 0 011.111-.438.83.83 0 01.445 1.094l-2.035 4.671h2.949c.291 0 .566.152.72.395.155.249.17.55.037.81l-2.563 5.047 1.6-.393a.842.842 0 011.027.607.833.833 0 01-.615 1.01l-3.385.833a.94.94 0 01-.207.024z" fill="#000"/><path d="M21.717 23.254l-19.434-.02a2.238 2.238 0 01-2-3.33l9.748-17.98a2.24 2.24 0 013.938 0l9.748 18a2.241 2.241 0 01-2 3.33zM12.03 2.234a.77.77 0 00-.66.39l-9.737 18a.75.75 0 000 .74.77.77 0 00.65.37h19.494a.77.77 0 00.65-.37.78.78 0 000-.74l-9.747-18a.77.77 0 00-.65-.39z" fill="#FFA000"/></svg>
